austria/municipalities/70204.svg

<?xml version="1.0" encoding="UTF-8"?>
<!DOCTYPE svg PUBLIC "-//W3C//DTD SVG 1.1//EN" "http://www.w3.org/Graphics/SVG/1.1/DTD/svg11.dtd">
<svg xmlns="http://www.w3.org/2000/svg" version="1.1" width="166px" height="192px" style="shape-rendering:geometricPrecision; text-rendering:geometricPrecision; image-rendering:optimizeQuality; fill-rule:evenodd; clip-rule:evenodd" xmlns:xlink="http://www.w3.org/1999/xlink">
<g><path style="opacity:1" fill="#070303" d="M -0.5,-0.5 C 54.8333,-0.5 110.167,-0.5 165.5,-0.5C 165.5,39.8333 165.5,80.1667 165.5,120.5C 156.728,159.605 132.728,183.272 93.5,191.5C 86.1667,191.5 78.8333,191.5 71.5,191.5C 30.5214,182.854 6.52138,157.854 -0.5,116.5C -0.5,77.5 -0.5,38.5 -0.5,-0.5 Z"/></g>
<g><path style="opacity:1" fill="#d63023" d="M 3.5,3.5 C 13.1724,3.33353 22.8391,3.5002 32.5,4C 33,4.5 33.5,5 34,5.5C 34.5,32.1646 34.6666,58.8313 34.5,85.5C 25.8269,85.6664 17.1603,85.4998 8.5,85C 6.71398,84.2155 5.21398,83.0488 4,81.5C 3.50003,55.5021 3.33336,29.5021 3.5,3.5 Z"/></g>
<g><path style="opacity:1" fill="#d43023" d="M 82.5,7.5 C 82.5,32.1667 82.5,56.8333 82.5,81.5C 80.8867,83.2696 78.8867,84.4363 76.5,85C 67.5062,85.4998 58.5062,85.6664 49.5,85.5C 49.3334,59.1646 49.5,32.8312 50,6.5C 50.3742,5.58377 50.8742,4.75044 51.5,4C 61.828,3.50017 72.1613,3.33351 82.5,3.5C 82.5,4.83333 82.5,6.16667 82.5,7.5 Z"/></g>
<g><path style="opacity:1" fill="#253167" d="M 160.5,6.5 C 157.932,10.8556 155.932,15.5223 154.5,20.5C 152.069,24.1108 150.403,28.1108 149.5,32.5C 147.707,34.4261 146.707,36.7594 146.5,39.5C 144.707,41.4261 143.707,43.7594 143.5,46.5C 140.039,52.4303 137.373,58.7636 135.5,65.5C 133.707,67.4261 132.707,69.7594 132.5,72.5C 129.932,76.8556 127.932,81.5223 126.5,86.5C 124.644,89.4086 122.977,92.4086 121.5,95.5C 121.293,92.7594 120.293,90.4261 118.5,88.5C 116.627,81.7636 113.961,75.4303 110.5,69.5C 108.552,67.6796 107.552,65.3462 107.5,62.5C 107.293,59.7594 106.293,57.4261 104.5,55.5C 103.597,51.1108 101.931,47.1108 99.5,43.5C 97.5516,41.6796 96.5516,39.3462 96.5,36.5C 96.2927,33.7594 95.2927,31.4261 93.5,29.5C 91.0187,21.882 88.0187,14.5487 84.5,7.5C 84.4606,6.41683 84.1272,5.41683 83.5,4.5C 109.158,3.50022 134.825,3.16689 160.5,3.5C 160.5,4.5 160.5,5.5 160.5,6.5 Z"/></g>
<g><path style="opacity:1" fill="#3c3a39" d="M 161.5,112.5 C 161.667,77.4984 161.5,42.4984 161,7.5C 159.315,12.2045 157.148,16.5378 154.5,20.5C 155.932,15.5223 157.932,10.8556 160.5,6.5C 161.117,6.38929 161.617,6.05596 162,5.5C 162.831,41.3357 162.664,77.0024 161.5,112.5 Z"/></g>
<g><path style="opacity:1" fill="#393736" d="M 82.5,7.5 C 83.1667,7.5 83.8333,7.5 84.5,7.5C 88.0187,14.5487 91.0187,21.882 93.5,29.5C 90.1083,23.0456 86.9416,16.3789 84,9.5C 83.3333,68.1667 83.3333,126.833 84,185.5C 86.0387,179.851 88.5387,174.518 91.5,169.5C 89.736,175.473 87.4027,181.14 84.5,186.5C 83.8333,186.833 83.1667,187.167 82.5,187.5C 82.5,159.5 82.5,131.5 82.5,103.5C 82.5,96.1667 82.5,88.8333 82.5,81.5C 82.5,56.8333 82.5,32.1667 82.5,7.5 Z"/></g>
<g><path style="opacity:1" fill="#fefefe" d="M 161.5,112.5 C 160.913,127.767 156.079,141.434 147,153.5C 146.617,152.944 146.117,152.611 145.5,152.5C 143.627,145.764 140.961,139.43 137.5,133.5C 137.448,130.654 136.448,128.32 134.5,126.5C 131.574,117.309 128.074,108.309 124,99.5C 124.185,95.0977 125.018,90.7644 126.5,86.5C 129.551,82.3864 131.551,77.7197 132.5,72.5C 134.293,70.5739 135.293,68.2406 135.5,65.5C 138.961,59.5697 141.627,53.2364 143.5,46.5C 145.448,44.6796 146.448,42.3462 146.5,39.5C 148.293,37.5739 149.293,35.2406 149.5,32.5C 152.237,29.0169 153.903,25.0169 154.5,20.5C 157.148,16.5378 159.315,12.2045 161,7.5C 161.5,42.4984 161.667,77.4984 161.5,112.5 Z"/></g>
<g><path style="opacity:1" fill="#fefefe" d="M 93.5,29.5 C 93.5516,32.3462 94.5516,34.6796 96.5,36.5C 96.5516,39.3462 97.5516,41.6796 99.5,43.5C 100.097,48.0169 101.763,52.0169 104.5,55.5C 104.707,58.2406 105.707,60.5739 107.5,62.5C 107.552,65.3462 108.552,67.6796 110.5,69.5C 112.373,76.2364 115.039,82.5697 118.5,88.5C 118.707,91.2406 119.707,93.5739 121.5,95.5C 120.629,98.1123 119.963,100.779 119.5,103.5C 117.707,105.426 116.707,107.759 116.5,110.5C 113.763,113.983 112.097,117.983 111.5,122.5C 109.552,124.32 108.552,126.654 108.5,129.5C 105.94,133.821 103.94,138.488 102.5,143.5C 99.7633,146.983 98.0966,150.983 97.5,155.5C 95.5516,157.32 94.5516,159.654 94.5,162.5C 92.5516,164.32 91.5516,166.654 91.5,169.5C 88.5387,174.518 86.0387,179.851 84,185.5C 83.3333,126.833 83.3333,68.1667 84,9.5C 86.9416,16.3789 90.1083,23.0456 93.5,29.5 Z"/></g>
<g><path style="opacity:1" fill="#222329" d="M 154.5,20.5 C 153.903,25.0169 152.237,29.0169 149.5,32.5C 150.403,28.1108 152.069,24.1108 154.5,20.5 Z"/></g>
<g><path style="opacity:1" fill="#1e1e22" d="M 93.5,29.5 C 95.2927,31.4261 96.2927,33.7594 96.5,36.5C 94.5516,34.6796 93.5516,32.3462 93.5,29.5 Z"/></g>
<g><path style="opacity:1" fill="#141417" d="M 149.5,32.5 C 149.293,35.2406 148.293,37.5739 146.5,39.5C 146.707,36.7594 147.707,34.4261 149.5,32.5 Z"/></g>
<g><path style="opacity:1" fill="#1a1a1d" d="M 146.5,39.5 C 146.448,42.3462 145.448,44.6796 143.5,46.5C 143.707,43.7594 144.707,41.4261 146.5,39.5 Z"/></g>
<g><path style="opacity:1" fill="#212229" d="M 99.5,43.5 C 101.931,47.1108 103.597,51.1108 104.5,55.5C 101.763,52.0169 100.097,48.0169 99.5,43.5 Z"/></g>
<g><path style="opacity:1" fill="#1f1e22" d="M 143.5,46.5 C 141.627,53.2364 138.961,59.5697 135.5,65.5C 137.373,58.7636 140.039,52.4303 143.5,46.5 Z"/></g>
<g><path style="opacity:1" fill="#15161a" d="M 104.5,55.5 C 106.293,57.4261 107.293,59.7594 107.5,62.5C 105.707,60.5739 104.707,58.2406 104.5,55.5 Z"/></g>
<g><path style="opacity:1" fill="#131316" d="M 135.5,65.5 C 135.293,68.2406 134.293,70.5739 132.5,72.5C 132.707,69.7594 133.707,67.4261 135.5,65.5 Z"/></g>
<g><path style="opacity:1" fill="#1e1f24" d="M 110.5,69.5 C 113.961,75.4303 116.627,81.7636 118.5,88.5C 115.039,82.5697 112.373,76.2364 110.5,69.5 Z"/></g>
<g><path style="opacity:1" fill="#1c1c20" d="M 132.5,72.5 C 131.551,77.7197 129.551,82.3864 126.5,86.5C 127.932,81.5223 129.932,76.8556 132.5,72.5 Z"/></g>
<g><path style="opacity:1" fill="#141519" d="M 118.5,88.5 C 120.293,90.4261 121.293,92.7594 121.5,95.5C 119.707,93.5739 118.707,91.2406 118.5,88.5 Z"/></g>
<g><path style="opacity:1" fill="#d73023" d="M 8.5,99.5 C 17.1667,99.5 25.8333,99.5 34.5,99.5C 34.8331,123.176 34.4997,146.843 33.5,170.5C 11.9362,152.99 2.10283,130.324 4,102.5C 5.40875,101.219 6.90875,100.219 8.5,99.5 Z"/></g>
<g><path style="opacity:1" fill="#d53023" d="M 82.5,103.5 C 82.5,131.5 82.5,159.5 82.5,187.5C 71.4468,187.523 60.9468,185.19 51,180.5C 49.5262,153.564 49.0262,126.564 49.5,99.5C 58.5062,99.3336 67.5062,99.5002 76.5,100C 78.8867,100.564 80.8867,101.73 82.5,103.5 Z"/></g>
<g><path style="opacity:1" fill="#253167" d="M 134.5,126.5 C 134.707,129.241 135.707,131.574 137.5,133.5C 139.373,140.236 142.039,146.57 145.5,152.5C 145.66,154.199 145.494,155.866 145,157.5C 129.264,176.788 109.097,186.454 84.5,186.5C 87.4027,181.14 89.736,175.473 91.5,169.5C 93.0652,167.491 94.0652,165.157 94.5,162.5C 96.2927,160.574 97.2927,158.241 97.5,155.5C 99.685,151.787 101.352,147.787 102.5,143.5C 105.458,139.309 107.458,134.642 108.5,129.5C 110.293,127.574 111.293,125.241 111.5,122.5C 113.931,118.889 115.597,114.889 116.5,110.5C 118.293,108.574 119.293,106.241 119.5,103.5C 120.558,102.4 121.392,101.066 122,99.5C 126.085,108.61 130.251,117.61 134.5,126.5 Z"/></g>
<g><path style="opacity:1" fill="#0e0e14" d="M 119.5,103.5 C 119.293,106.241 118.293,108.574 116.5,110.5C 116.707,107.759 117.707,105.426 119.5,103.5 Z"/></g>
<g><path style="opacity:1" fill="#17181d" d="M 116.5,110.5 C 115.597,114.889 113.931,118.889 111.5,122.5C 112.097,117.983 113.763,113.983 116.5,110.5 Z"/></g>
<g><path style="opacity:1" fill="#1d1d21" d="M 126.5,86.5 C 125.018,90.7644 124.185,95.0977 124,99.5C 128.074,108.309 131.574,117.309 134.5,126.5C 130.251,117.61 126.085,108.61 122,99.5C 121.392,101.066 120.558,102.4 119.5,103.5C 119.963,100.779 120.629,98.1123 121.5,95.5C 122.977,92.4086 124.644,89.4086 126.5,86.5 Z"/></g>
<g><path style="opacity:1" fill="#fcfcfc" d="M -0.5,116.5 C 6.52138,157.854 30.5214,182.854 71.5,191.5C 47.5,191.5 23.5,191.5 -0.5,191.5C -0.5,166.5 -0.5,141.5 -0.5,116.5 Z"/></g>
<g><path style="opacity:1" fill="#fdfdfd" d="M 165.5,120.5 C 165.5,144.167 165.5,167.833 165.5,191.5C 141.5,191.5 117.5,191.5 93.5,191.5C 132.728,183.272 156.728,159.605 165.5,120.5 Z"/></g>
<g><path style="opacity:1" fill="#171718" d="M 111.5,122.5 C 111.293,125.241 110.293,127.574 108.5,129.5C 108.552,126.654 109.552,124.32 111.5,122.5 Z"/></g>
<g><path style="opacity:1" fill="#1b1a1c" d="M 134.5,126.5 C 136.448,128.32 137.448,130.654 137.5,133.5C 135.707,131.574 134.707,129.241 134.5,126.5 Z"/></g>
<g><path style="opacity:1" fill="#131317" d="M 108.5,129.5 C 107.458,134.642 105.458,139.309 102.5,143.5C 103.94,138.488 105.94,133.821 108.5,129.5 Z"/></g>
<g><path style="opacity:1" fill="#1c1c1e" d="M 137.5,133.5 C 140.961,139.43 143.627,145.764 145.5,152.5C 142.039,146.57 139.373,140.236 137.5,133.5 Z"/></g>
<g><path style="opacity:1" fill="#141519" d="M 102.5,143.5 C 101.352,147.787 99.685,151.787 97.5,155.5C 98.0966,150.983 99.7633,146.983 102.5,143.5 Z"/></g>
<g><path style="opacity:1" fill="#1c1b1f" d="M 97.5,155.5 C 97.2927,158.241 96.2927,160.574 94.5,162.5C 94.5516,159.654 95.5516,157.32 97.5,155.5 Z"/></g>
<g><path style="opacity:1" fill="#1a191a" d="M 94.5,162.5 C 94.0652,165.157 93.0652,167.491 91.5,169.5C 91.5516,166.654 92.5516,164.32 94.5,162.5 Z"/></g>
</svg>

<svg xmlns="http://www.w3.org/2000/svg" width="166" height="192" style="shape-rendering:geometricPrecision;text-rendering:geometricPrecision;image-rendering:optimizeQuality;fill-rule:evenodd;clip-rule:evenodd"><path style="opacity:1" fill="#070303" d="M-.5-.5h166v121c-8.772 39.105-32.772 62.772-72 71h-22c-40.979-8.646-64.979-33.646-72-75V-.5z"/><path style="opacity:1" fill="#d63023" d="M3.5 3.5c9.672-.166 19.34 0 29 .5L34 5.5c.5 26.665.667 53.331.5 80-8.673.166-17.34 0-26-.5A11.529 11.529 0 0 1 4 81.5c-.5-25.998-.667-51.998-.5-78z"/><path style="opacity:1" fill="#d43023" d="M82.5 7.5v74c-1.613 1.77-3.613 2.936-6 3.5-8.994.5-17.994.666-27 .5a3121 3121 0 0 1 .5-79A9.468 9.468 0 0 1 51.5 4c10.328-.5 20.661-.666 31-.5v4z"/><path style="opacity:1" fill="#253167" d="M160.5 6.5c-2.568 4.356-4.568 9.022-6 14-2.431 3.61-4.097 7.61-5 12-1.793 1.926-2.793 4.26-3 7-1.793 1.926-2.793 4.26-3 7-3.461 5.93-6.127 12.264-8 19-1.793 1.926-2.793 4.26-3 7-2.568 4.356-4.568 9.022-6 14a84.19 84.19 0 0 0-5 9c-.207-2.74-1.207-5.074-3-7-1.873-6.736-4.539-13.07-8-19-1.948-1.82-2.948-4.154-3-7-.207-2.74-1.207-5.074-3-7-.903-4.39-2.569-8.39-5-12-1.948-1.82-2.948-4.154-3-7-.207-2.74-1.207-5.074-3-7a160.403 160.403 0 0 0-9-22 5.577 5.577 0 0 0-1-3c25.658-1 51.325-1.333 77-1v3z"/><path style="opacity:1" fill="#3c3a39" d="M161.5 112.5c.167-35.002 0-70.002-.5-105-1.685 4.704-3.852 9.038-6.5 13 1.432-4.978 3.432-9.644 6-14 .617-.11 1.117-.444 1.5-1 .831 35.836.664 71.502-.5 107z"/><path style="opacity:1" fill="#393736" d="M82.5 7.5h2a160.403 160.403 0 0 1 9 22 277.688 277.688 0 0 1-9.5-20 7743.863 7743.863 0 0 0 0 176c2.039-5.649 4.539-10.982 7.5-16a87.826 87.826 0 0 1-7 17l-2 1V7.5z"/><path style="opacity:1" fill="#fefefe" d="M161.5 112.5c-.587 15.267-5.421 28.934-14.5 41-.383-.556-.883-.889-1.5-1-1.873-6.736-4.539-13.07-8-19-.052-2.846-1.052-5.18-3-7a231.731 231.731 0 0 0-10.5-27c.185-4.402 1.018-8.736 2.5-13 3.051-4.114 5.051-8.78 6-14 1.793-1.926 2.793-4.26 3-7 3.461-5.93 6.127-12.264 8-19 1.948-1.82 2.948-4.154 3-7 1.793-1.926 2.793-4.26 3-7 2.737-3.483 4.403-7.483 5-12 2.648-3.962 4.815-8.296 6.5-13 .5 34.998.667 69.998.5 105zM93.5 29.5c.052 2.846 1.052 5.18 3 7 .052 2.846 1.052 5.18 3 7 .597 4.517 2.263 8.517 5 12 .207 2.74 1.207 5.074 3 7 .052 2.846 1.052 5.18 3 7 1.873 6.736 4.539 13.07 8 19 .207 2.74 1.207 5.074 3 7a53.768 53.768 0 0 0-2 8c-1.793 1.926-2.793 4.259-3 7-2.737 3.483-4.403 7.483-5 12-1.948 1.82-2.948 4.154-3 7-2.56 4.321-4.56 8.988-6 14-2.737 3.483-4.403 7.483-5 12-1.948 1.82-2.948 4.154-3 7-1.948 1.82-2.948 4.154-3 7-2.961 5.018-5.461 10.351-7.5 16a7743.863 7743.863 0 0 1 0-176 277.688 277.688 0 0 0 9.5 20z"/><path style="opacity:1" fill="#222329" d="M154.5 20.5c-.597 4.517-2.263 8.517-5 12 .903-4.39 2.569-8.39 5-12z"/><path style="opacity:1" fill="#1e1e22" d="M93.5 29.5c1.793 1.926 2.793 4.26 3 7-1.948-1.82-2.948-4.154-3-7z"/><path style="opacity:1" fill="#141417" d="M149.5 32.5c-.207 2.74-1.207 5.074-3 7 .207-2.74 1.207-5.074 3-7z"/><path style="opacity:1" fill="#1a1a1d" d="M146.5 39.5c-.052 2.846-1.052 5.18-3 7 .207-2.74 1.207-5.074 3-7z"/><path style="opacity:1" fill="#212229" d="M99.5 43.5c2.431 3.61 4.097 7.61 5 12-2.737-3.483-4.403-7.483-5-12z"/><path style="opacity:1" fill="#1f1e22" d="M143.5 46.5c-1.873 6.736-4.539 13.07-8 19 1.873-6.736 4.539-13.07 8-19z"/><path style="opacity:1" fill="#15161a" d="M104.5 55.5c1.793 1.926 2.793 4.26 3 7-1.793-1.926-2.793-4.26-3-7z"/><path style="opacity:1" fill="#131316" d="M135.5 65.5c-.207 2.74-1.207 5.074-3 7 .207-2.74 1.207-5.074 3-7z"/><path style="opacity:1" fill="#1e1f24" d="M110.5 69.5c3.461 5.93 6.127 12.264 8 19-3.461-5.93-6.127-12.264-8-19z"/><path style="opacity:1" fill="#1c1c20" d="M132.5 72.5c-.949 5.22-2.949 9.886-6 14 1.432-4.978 3.432-9.644 6-14z"/><path style="opacity:1" fill="#141519" d="M118.5 88.5c1.793 1.926 2.793 4.26 3 7-1.793-1.926-2.793-4.26-3-7z"/><path style="opacity:1" fill="#d73023" d="M8.5 99.5h26c.333 23.676 0 47.343-1 71-21.564-17.51-31.397-40.176-29.5-68 1.409-1.281 2.909-2.281 4.5-3z"/><path style="opacity:1" fill="#d53023" d="M82.5 103.5v84c-11.053.023-21.553-2.31-31.5-7a1122.497 1122.497 0 0 1-1.5-81c9.006-.166 18.006 0 27 .5 2.387.564 4.387 1.73 6 3.5z"/><path style="opacity:1" fill="#253167" d="M134.5 126.5c.207 2.741 1.207 5.074 3 7 1.873 6.736 4.539 13.07 8 19a12.93 12.93 0 0 1-.5 5c-15.736 19.288-35.903 28.954-60.5 29a87.826 87.826 0 0 0 7-17c1.565-2.009 2.565-4.343 3-7 1.793-1.926 2.793-4.259 3-7 2.185-3.713 3.852-7.713 5-12 2.958-4.191 4.958-8.858 6-14 1.793-1.926 2.793-4.259 3-7 2.431-3.611 4.097-7.611 5-12 1.793-1.926 2.793-4.259 3-7 1.058-1.1 1.892-2.434 2.5-4 4.085 9.11 8.251 18.11 12.5 27z"/><path style="opacity:1" fill="#0e0e14" d="M119.5 103.5c-.207 2.741-1.207 5.074-3 7 .207-2.741 1.207-5.074 3-7z"/><path style="opacity:1" fill="#17181d" d="M116.5 110.5c-.903 4.389-2.569 8.389-5 12 .597-4.517 2.263-8.517 5-12z"/><path style="opacity:1" fill="#1d1d21" d="M126.5 86.5c-1.482 4.264-2.315 8.598-2.5 13a231.731 231.731 0 0 1 10.5 27c-4.249-8.89-8.415-17.89-12.5-27-.608 1.566-1.442 2.9-2.5 4a53.768 53.768 0 0 1 2-8 84.19 84.19 0 0 1 5-9z"/><path style="opacity:1" fill="#fcfcfc" d="M-.5 116.5c7.021 41.354 31.021 66.354 72 75h-72v-75z"/><path style="opacity:1" fill="#fdfdfd" d="M165.5 120.5v71h-72c39.228-8.228 63.228-31.895 72-71z"/><path style="opacity:1" fill="#171718" d="M111.5 122.5c-.207 2.741-1.207 5.074-3 7 .052-2.846 1.052-5.18 3-7z"/><path style="opacity:1" fill="#1b1a1c" d="M134.5 126.5c1.948 1.82 2.948 4.154 3 7-1.793-1.926-2.793-4.259-3-7z"/><path style="opacity:1" fill="#131317" d="M108.5 129.5c-1.042 5.142-3.042 9.809-6 14 1.44-5.012 3.44-9.679 6-14z"/><path style="opacity:1" fill="#1c1c1e" d="M137.5 133.5c3.461 5.93 6.127 12.264 8 19-3.461-5.93-6.127-12.264-8-19z"/><path style="opacity:1" fill="#141519" d="M102.5 143.5c-1.148 4.287-2.815 8.287-5 12 .597-4.517 2.263-8.517 5-12z"/><path style="opacity:1" fill="#1c1b1f" d="M97.5 155.5c-.207 2.741-1.207 5.074-3 7 .052-2.846 1.052-5.18 3-7z"/><path style="opacity:1" fill="#1a191a" d="M94.5 162.5c-.435 2.657-1.435 4.991-3 7 .052-2.846 1.052-5.18 3-7z"/></svg>
